!!!ONB: MCCC : ICS0003_01 : Extracted Monophonic Melody
!!!COM: Saint-Saëns, Camille
!!!OPR: Album
!!!OMV: 1
!!!SCT: Op.72
!!!ODT: 1884///
**kern
*staff1
=1
*clefG2
*k[f#c#g#d#]
*E:
*M4/4
8ee
8ee
8ee
8ee
8ee
8ee
8ee
8ee
=2
8ee
8ee
8b
8b
8a
8g#
8g#[
16g#]
16a
=3
2b
2b
=4
8ee
8ee
8ee
8ee
8ee
8ee
8ee
8ee
=5
8ee
8ee
8b
8b
8a
8g#
8g#[
16g#]
16a
=6
2cc#
2cc#
=7
8ee
8ee
8ee
8ee
8ee
8ee
8ee
8ee
=8
8ee
8ee
8bb
8bb
8aa#
8gg
8ee
16cc#
16a#
=9
8ee
8ee
8ee
8ee
8ee
8ee
8ee
8ee
=10
8ee
8ee
8b
8b
8a#
8g
8e
16c#
16A#
=11
2g#
2gg#
=12
2ggg#
16ee
16dd#
16b
16g#
4r
=13
2g#
2gg#
=14
2ggg#
16ee
16dd#
16b#
16g#
4r
=15
8r
8ccc#
8ee
8bb
8ee
8aa
8ee
8gg#
=16
8r
8ff#
8a
8ee
8a
8dd
8a
8cc#
=17
8r
8ddd
8ff#
8ccc#
8ff#
8bb
8ff#
8aa
=18
8r
8gg#
8b
8ff#
8b
8ee
8g#
8dd
=19
2cc#
2dd
=20
2ee
2ee#
=21
2ff##
2gg#
=22
2aa#
2bb
=23
8r
8dddd#
8fff#
8cccc#
8fff#
8bbb
8ddd#
8aaa#
=24
8r
8ggg#
8bb
8fff#
8bb
8eee
8gg#
8ddd#
=25
8r
8eeee
8ggg#
8dddd#
8ggg#
8cccc#
8eee
8bbb
=26
8r
8aaa
8ccc#
8ggg#
8ccc#
8fff#
8aa
8eee
=27
4ddd
16d
16f#
16b
16a
16dd
16ff#
16bb
16aa
16ddd
16fff#
16bbb
16aaa
=28
16dddd
16bbb
16aaa
16ggg#
16ddd
16bb
16aa
16gg#
16dd
16b
16a
16g#
16d
16B
16A
16G#
=29
16A
16f#
16e
16d
16D
16F#
16B
16A
16d
16f#
16b
16a
16dd
16ff#
16bb
16aa
=30
16ddd
16bb
16aa
16gg#
16dd
16b
16a
16g#
16dd
16b
16a
16g#
16d
16B
16A
16G#
=31
16G
16e
16d
16B#
16E
16G
16d
16B#
16e
16g
16dd
16b#
16ee
16gg
16ddd
16bb#
=32
16bbb
16aaa
16fff#
16bb#
16bb
16aa
16ff#
16b#
16b
16a
16f#
16B#
16B
16A
16G
16F#
=33
16G
16g
16e
16B#
16E
16G
16d
16B#
16e
16g
16dd
16b#
16ee
16gg
16ddd
16bb#
=34
16bbb
16aaa
16fff#
16bb#
16bb
16aa
16ff#
16b#
16b
16a
16f#
16B#
16B
16A
16F#
16BB#
=35
16B#
16A#
16E#
16AA#
16d
16B#
16A
16E#
16d#
16d
16A#
16E#
16g
16e#
16B#
16A
=36
16b#
16a#
16e#
16A#
16dd
16b#
16a
16e#
16dd#
16dd
16a#
16e#
16gg
16ee#
16b#
16a
=37
16bb#
16aa#
16ee#
16a#
16ddd
16bb#
16aa
16ee#
16ddd#
16ddd
16aa#
16ee#
16ggg
16eee#
16ddd
16aa#
=38
16ggg
16eee#
16ddd
16aa#
16gg
16ee#
16dd
16a#
16g
16e#
16d
16A#
16G
16E#
16D
16AA#
=39
4D
4r
6a#
12b#
8b#
8dd
=40
1dd
=41
1r
=42
2r
2d
=43
1e#[
=44
2e#]
2e#
=45
1e#
=46
2r
2d
=47
1e#[
=48
2e#]
2g[
=49
2g]
2g#[
=50
2g#]
2b
=51
2dd#
2gg#
=52
2bb
2ddd#
=53
8eee
8cc#
8ee
8ee
8ee
8ee
8ee
8ee
=54
8ee
8ee
8b
8b
8a
8g#
8g#[
16g#]
16a
=55
2b
2b
=56
8ee
8ee
8ee
8ee
8ee
8ee
8ee
8ee
=57
8ee
8ee
8b
8b
8a
8g#
8g#[
16g#]
16a
=58
2cc#
2cc#
=59
8ee
8ee
8ee
8ee
8ee
8ee
8ee
8ee
=60
8ee
8ee
8bb
8bb
8aa#
8gg
8ee
16cc#
16a#
=61
8ee
8ee
8ee
8ee
8ee
8ee
8ee
8ee
=62
8ee
8ee
8b
8b
8a#
8g
8e
16c#
16A#
=63
2e
2e
=64
2e
2r
=65
2g
2g
=66
2g
2r
=67
1b
=68
4r
16g#
16b
16dd#
16gg#
16bb
16ddd#
16ggg#
16bbb
4r
=69
1b
=70
2r
16b
16dd#
16gg#
16bb
4r
=71
4r
16d#
16f#
16a
16b
8dd#
8ff#
4bb[
=72
4bb]
4bb#
4ccc#
4ddd#
=73
8eee
8eee
8eee
8eee
8eee
8eee
8eee
8eee
=74
8eee
8eee
8bb
8bb
4aa
16ff#
8bb[
16bb]
=75
8ee
8ee
8ee
8ee
8ee
8ee
8ee
8ee
=76
8ee
8ee
8b
8b
4a
16f#
8b[
16b]
=77
8e
8e
8A[
16A]
16G#
8e
8e
8A[
16A]
16G#
=78
8e
8e
8A[
16A]
16G#
8e
8e
8A[
16A]
16G#
=79
1e
=80
2e#
2f#
=81
1r
=82
1r
=83
1r
==
*-
